X:1
T:Title
%%score [ 1 2 3 4 ]
L:1/8
Q:1/4=120
M:2/2
K:F
V:1 treble nm="S."
V:2 treble nm="A."
V:3 treble-8 nm="T."
V:4 bass nm="B."
V:1
!p!!f!"^/" F8 |:"^Fair Phyllis I saw" A3 B c2 c2 | B2 A2 G2 F2 c4 | c3 c c2 d4 | %4
w: Fair|Phyl- lis I saw|sit- ting all a- lone|feed- ing her flock|
 c2 B2"^John Farmer""^(late 16/early 17 cent.)" A2 G2 G2 |[M:6/4] A4 z2 F2 :| A4 z2!mf! F2 | %7
w: near to the moun- tain-|side, fair|side: the|
 c3 c A2 Ac | B2 A2 GF GG |[M:2/2] A4 z4 | z8 | F2 AB c2 c2- | cG c2 c4 | A2!p! A2 c2 Ad | %14
w: shep- herds knew not, they|knew not whi- ther she was|gone,||but af- ter her lov|* er her lov-|er, but af- ter her|
 c2 A2 z4 | z2 c2 c2 =B2 | c8 |: z4 z2!f! dc | B3 A G2 F2 | z2 dc B3 A | G2 F2 z4 | %21
w: lov- er|A- myn- tas|hied,|up and|down he wan- dered,|up and down he|wan- dered,|
 z2"^dim." c4 G2 | E3 F G2 G2 | z2!p! cc G2 A2 | E2 F2 GB A2 | G2 (F4 E2) | F4 z4 | %27
w: up and|down he wan- dered,|up and down he|wan- dered, up and down|he wan *|dered,|
 z2!<(! A2 A2 =B2!<)! |!>(! c2 G2!>)!!f! A4 | G4 F4 | E8 | z8 | z4!p! c4 | %33
w: whilst she was|miss- ing, when|he found|her,||oh|
 (3:2:2d4 c2 (3:2:2B2 G4 | (3:2:1A3 (3:2:2B c2 (3c3 B!f! A2 | (3:2:2G4 F2 (3:2:2F2 E4 | F2 F2 z4 :| %37
w: then they fell a|kiss- ing a kiss- ing, oh|then they fell a|kiss- ing,|
 F4 F4 |] %38
w: kiss- ing.|
V:2
 z8 |: z8 | z8 z4 |!p!!f!"^/" F3 F F2 F4 | F2 FF F4 E2 |[M:6/4] F8 :| F8 | z2!mf! C2 F3 F | %8
w: |||feed- ing her flock|near to the moun- tain-|side,|side:|the shep- herds|
 D2 F2 ED EE |[M:2/2] F4 z4 | z4 z2 F2 | AB c2 A2 F2- | F2 E2 F4 | F2!p! F2 A2 FB | A2 F2 z4 | %15
w: knew not whi- ther she was|gone,|but|af- ter her lov- er|* her lov-|er, but af- ter her|lov- er|
 z2 F2 G3 F | E4 z4 |: z2!f! FE D4 | z2 dc B3 A | G2 F2 z2 dc | B3 A (G2 F2) | %21
w: A- myn- tas|hied,|up and down,|up and down he|wan- dered, up and|down he wan- *|
 E4 z2"^dim.""^__" c2- |"^___" c2 G2 E3 F | G2 G2 z2!p! cc | G2 A2 (E2 F2) | E2 C2 C4 | C4 z4 | %27
w: dered, up|* and down he|wan- dered, up and|down he wan *|dered, he wan-|dered,|
 z2!<(! F2 F2 D2!<)! |!>(! C2 C2!>)! z2!f! D2- | DC (C4 =B,2) | C4 G4 | (3:2:2A4 G2 (3:2:2F2 D4 | %32
w: whilst she was|miss- ing, when|* he found *|her, oh|then they fell a|
 E2 E2!p! G4 | (3:2:2G2 F4 (3:2:2G2 E4 | (3F3 G A2 (3A3 G!f! F2 | (3:2:2E4 C2 (3:2:2D2 C4 | %36
w: kiss- ing, oh|then they fell a|kiss- ing a kiss- ing, oh|then they fell a|
 C4 C4 :| C4 C4 |] %38
w: kiss- ing,|kiss- ing.|
V:3
 z8 |: z8 | z8 z4 |!p!"^/"!f! A3 A A2 B4 | c2 dd c4 c2 |[M:6/4][K:treble-8] c8 :| c8 | z8 | %8
w: |||feed- ing her flock|near to the moun- tain-|side,|side:||
 z2!mf! F2 c3 c |[M:2/2][K:treble-8] A2 Ac B2 A2 | GABG A4 | z2 F2 AB c2 | c2 GG A4 | c4 z4 | %14
w: the shep- herds|knew not, they knew not|whi- ther she was gone,|but af- ter her|lov- er her lov-|er,|
 z2!p! A2 c2 Ad | cA c2 d2 d2 | c2!f! cB A3 G |: F4 F2 fe | d4 z2 dc | B3 A G2 F2 | z2 dc B3 A | %21
w: but af- ter her|lov- er A- myn- tas|hied, up and down he|wan- dered, up and|down, up and|down he wan- dered,|up and down he|
 G4 E4 | z2"^dim." c4 G2 | E3 F G2 E2 | z2!p! ccGGAF | GBAA G4 | F2!<(! c2 d2 e2!<)! | %27
w: wan- dered,|up and|down he wan- dered,|up and down he wan- dered,|up and down he wan-|dered, whilst she was|
!>(! f2 c2!>)! z4 | z4 z2!f! A2 | c2 (G2 A2 GF) | G4 c4 | (3:2:2c4 c2 (3:2:2d2 =B4 | c2 G2!p! G4 | %33
w: miss- ing,|when|he found * * *|her, oh|then they fell a|kiss- ing, oh|
 (3:2:2B4 c2 (3:2:2d2 c4 | (3c3 B A2 (3c2 c2!f! c2 | (3:2:2c4 A2 (3:2:2B2 G4 | AAcB A3 G :| %37
w: then they fell a|kiss- ing a kiss- ing, oh|then they fell a|kiss- ing, up and down he|
 A4 A4 |] %38
w: kiss- ing.|
V:4
 z8 |: z8 | z8 z4 |!p!!f!"^/" F,3 F, F,2 B,,4 | A,,2 B,,2 F,,2 C,2 C,2 |[M:6/4] F,8 :| F,8 | z8 | %8
w: |||feed- ing her flock|near to the moun- tain-|side,|side:||
 z4 z2!mf! C,2 |[M:2/2] F,3 F, D,2 F,2 | E,F,G,E, F,4 | z4 F,,2 A,,B,, | C,4"^__" F,4- | %13
w: the|shep- herds knew not|whi- ther she was gone,|but af- ter|her lov|
"^___-""^This edition  Andrew Sims 2000" F,2 F,,2 z4 | z2!p! F,2 A,2 F,B, | A,F, A,2 G,2 G,2 | %16
w: * er,|but af- ter her|lov- er A- myn- tas|
 C,4 z2!f! F,E, |: D,3 C, B,,4- | B,,2 B,,2 B,,4 | B,,8 | B,,8 |"^dim." C,8 | C,8 |!p! C,8 | C,8 | %25
w: hied, up and|down he wan|* dered he|wan-|dered,|up|and|down|he|
 C,8 | F,,2!<(! F,2 B,2 G,2!<)! |!>(! F,2 F,2!>)! z4 | z4!f! F,4 | E,4 D,4 | C,4 C,4 | %31
w: wan-|dered, whilst she was|miss- ing,|when|he found|her, oh|
 (3:2:2F,4 E,2 (3:2:2D,2 G,4 | C,2 C,2!p! C,4 | (3:2:2B,,4 A,,2 (3:2:2G,,2 C,4 | %34
w: then they fell a|kiss- ing, oh|then they fell a|
 (3F,,2 F,,2 F,,2 (3F,2 F,2!f! F,2 | (3:2:2C,4 F,2 (3:2:2B,,2 C,4 | F,,4 F,,2 F,E, :| F,,4 F,,4 |] %38
w: kiss- ing a kiss- ing, oh|then they fell a|kiss- ing, up and|kiss- ing.|

